X:133
T:Willie Galbreath
S:NLS MS.21733
M:C
L:1/8
Q:1/4=80
N:original last part is too short:
N:G>d'b>g (3dgb (3d'bg|d>c'a>f (3dfb (3c'af|G>d'b>g (3dgb (3d'bg|(3egc' (3dgb (3c'af (3gdB||
N:last part reconstructed from version in the Skye Collection
P:ABA
K:G
P:A
G>GB>d    g>de<g       |{e}d>Bd<g    a/g/a/b/ g<b    |G<GB>d    g>de<g      |  c'/b/a/g/    (e/g/)d/B/  dggb      :|
d'bgd     egc'e'       |   d'g'bd'  (gb)     (dg/>b/)|d'>bgd    egc'e'      | (e'/d'/)c'/b/ (c'/b/)a/g/ dggb      :|
P:B
G>dB>g    db   (gb/d'/)|   A>dc>e    Ac'      ab/c'/ |G>dB>g    db    gb/d'/|  c'/b/a/g/    (e/g/)d/B/  dggb      :|
G>d'b>g (3dgb (3d'bg   |   d>c'a>f (3dfb    (3c'af   |G>d'b>g (3dgb (3d'bg  |  c'/b/a/g/    (e/g/)d/B/  dggb       |
G>d'b>g (3dgb (3d'bg   |   d>c'a>f (3dfb    (3c'af   |G>d'b>g (3dgb (3d'bg  |(3egc'        (3dgb      (3c'af (3gdB||
